X:990
T:Saturday Waltz
C:Joe Buchanan's Scottish Tome - Page 573.2
I:573 2
Z:Carl Allison
R:Waltz
L:1/4
M:3/4
K:D
| f e3/2 e/ | c B3/2 A/ | f e3/2 d/ | c B3/2 A | ((3A/B/A/) F A/ c/A/ | ((3A/B/A/) F A/ c/A/ |A G3/2 E/ | C3 | 
g e3/2 d/ | c B3/2 A/ | g e3/2 d/ | c B3/2 A/ | ((3A/B/A/) F A/ c/A/ | c/B/ A/G/ F/^E/ | F3- | F2 A |
f e3/2 d/ | c B3/2 A/ | f e3/2 d/ | c B3/2 A/ | ((3A/B/A/) F A/ c/A/ | ((3d/e/d/) c d/ e/d/ | B3- | B2 B |
((3B/c/B/) ^A B/ c/B/ | e3 | ((3A/B/A/) F A/ c/A/ | d3 | c3/2 B/ A | G3/2 F/ E | D3- | D2 :|
A/A/ | A ^G A/A/ | A ^G A/A/ | A B3/2 A/ | ((3D/C/D/) F D/ F/A/ | ((3D/C/D/) F D/ F/A/ | A G E | C2 E/E/ | 
A ^G A/A/ | A ^G A/A/ | E3 | E3 | ((3A,/B,/A,/) C A,/ C/E/ | ((3A,/B,/A,/) C A,/ C/E/ | F D3/2 B,/ | A,2 A/A/ | 
A ^G A/A/ | A ^G A/A/ | A B3/2 A/ | F3 | ((3D/C/D/) F D/ F/A/ | ((3D/C/D/) F D/ F/A/ | B3- | B2 A | 
((3B/c/B/) ^A B/ c/B/ | e3 | ((3A/B/A/) G A/ c/A/ | d3 | d c3/2 B/ | c/B/ A/G/ F/^E/ | D3- | D2 :|

